papirus/32x32/devices/input-touchpad.svg

<?xml version="1.0" encoding="UTF-8" standalone="no"?>
<!-- Created with Inkscape (http://www.inkscape.org/) -->

<svg
   xmlns:dc="http://purl.org/dc/elements/1.1/"
   xmlns:cc="http://creativecommons.org/ns#"
   xmlns:rdf="http://www.w3.org/1999/02/22-rdf-syntax-ns#"
   xmlns:svg="http://www.w3.org/2000/svg"
   xmlns="http://www.w3.org/2000/svg"
   xmlns:xlink="http://www.w3.org/1999/xlink"
   xmlns:sodipodi="http://sodipodi.sourceforge.net/DTD/sodipodi-0.dtd"
   xmlns:inkscape="http://www.inkscape.org/namespaces/inkscape"
   id="svg2817"
   height="32"
   width="32"
   version="1.0"
   inkscape:version="0.91 r"
   sodipodi:docname="input-touchpad.svg">
  <metadata
     id="metadata57">
    <rdf:RDF>
      <cc:Work
         rdf:about="">
        <dc:format>image/svg+xml</dc:format>
        <dc:type
           rdf:resource="http://purl.org/dc/dcmitype/StillImage" />
        <dc:title />
      </cc:Work>
    </rdf:RDF>
  </metadata>
  <sodipodi:namedview
     pagecolor="#ffffff"
     bordercolor="#666666"
     borderopacity="1"
     objecttolerance="10"
     gridtolerance="10"
     guidetolerance="10"
     inkscape:pageopacity="0"
     inkscape:pageshadow="2"
     inkscape:window-width="1600"
     inkscape:window-height="840"
     id="namedview55"
     showgrid="false"
     inkscape:zoom="15.07"
     inkscape:cx="14.545343"
     inkscape:cy="18.146926"
     inkscape:window-x="-4"
     inkscape:window-y="34"
     inkscape:window-maximized="1"
     inkscape:current-layer="svg2817" />
  <defs
     id="defs2819">
    <linearGradient
       id="linearGradient2815"
       y2="17.5"
       spreadMethod="reflect"
       gradientUnits="userSpaceOnUse"
       x2="3.0051999"
       y1="17.5"
       x1="44.994999">
      <stop
         id="stop3277"
         style="stop-color:#fff;stop-opacity:0"
         offset="0" />
      <stop
         id="stop3283"
         style="stop-color:#fff"
         offset=".245" />
      <stop
         id="stop3285"
         style="stop-color:#fff"
         offset=".77350" />
      <stop
         id="stop3279"
         style="stop-color:#fff;stop-opacity:0"
         offset="1" />
    </linearGradient>
    <linearGradient
       id="linearGradient2813"
       y2="8"
       gradientUnits="userSpaceOnUse"
       x2="26"
       y1="22"
       x1="26">
      <stop
         id="stop3829"
         style="stop-color:#fff"
         offset="0" />
      <stop
         id="stop4295"
         style="stop-color:#fff"
         offset=".30213" />
      <stop
         id="stop4293"
         style="stop-color:#fff;stop-opacity:.69020"
         offset=".34361" />
      <stop
         id="stop3832"
         style="stop-color:#fff;stop-opacity:0"
         offset="1" />
    </linearGradient>
    <linearGradient
       id="linearGradient2811"
       y2="45.933998"
       gradientUnits="userSpaceOnUse"
       x2="43.007"
       gradientTransform="matrix(1.2822,0,0,1.1747,-6.0702,-5.3032)"
       y1="30.555"
       x1="23.452">
      <stop
         id="stop4561"
         style="stop-color:#fff;stop-opacity:0"
         offset="0" />
      <stop
         id="stop4563"
         style="stop-color:#fff;stop-opacity:0"
         offset="1" />
    </linearGradient>
    <linearGradient
       id="linearGradient2809"
       y2="45.042"
       gradientUnits="userSpaceOnUse"
       x2="15.464"
       y1="7.9756999"
       x1="15.464">
      <stop
         id="stop3297"
         style="stop-color:#c9af8b"
         offset="0" />
      <stop
         id="stop3299"
         style="stop-color:#ad8757"
         offset=".23942" />
      <stop
         id="stop3301"
         style="stop-color:#c2a57f"
         offset=".27582" />
      <stop
         id="stop3303"
         style="stop-color:#9d7d53"
         offset="1" />
    </linearGradient>
    <linearGradient
       id="linearGradient2807"
       y2="37.277"
       gradientUnits="userSpaceOnUse"
       x2="24.997"
       gradientTransform="matrix(1.2822,0,0,1.5573,-6.0702,-15.291)"
       y1="15.378"
       x1="24.823">
      <stop
         id="stop3201"
         style="stop-color:#dac197"
         offset="0" />
      <stop
         id="stop3203"
         style="stop-color:#c1a581"
         offset=".23942" />
      <stop
         id="stop3205"
         style="stop-color:#dbc298"
         offset=".27582" />
      <stop
         id="stop3207"
         style="stop-color:#a68b60"
         offset="1" />
    </linearGradient>
    <radialGradient
       id="radialGradient2805"
       xlink:href="#linearGradient3681"
       gradientUnits="userSpaceOnUse"
       cy="41.5"
       cx="5"
       gradientTransform="matrix(0.59382,0,0,1.5367,41.141,-103.94)"
       r="5" />
    <linearGradient
       id="linearGradient2803"
       y2="35"
       gradientUnits="userSpaceOnUse"
       x2="17.554001"
       gradientTransform="matrix(1.757,0,0,1.397,-17.394,-16.412)"
       y1="46"
       x1="17.554001">
      <stop
         id="stop3705"
         style="stop-opacity:0"
         offset="0" />
      <stop
         id="stop3711"
         offset=".5" />
      <stop
         id="stop3707"
         style="stop-opacity:0"
         offset="1" />
    </linearGradient>
    <linearGradient
       id="linearGradient3681">
      <stop
         id="stop3683"
         offset="0" />
      <stop
         id="stop3685"
         style="stop-opacity:0"
         offset="1" />
    </linearGradient>
    <radialGradient
       id="radialGradient2801"
       xlink:href="#linearGradient3681"
       gradientUnits="userSpaceOnUse"
       cy="41.5"
       cx="5"
       gradientTransform="matrix(0.59382,0,0,1.5367,-6.6595,-103.94)"
       r="5" />
    <linearGradient
       id="linearGradient2789"
       y2="25.410999"
       gradientUnits="userSpaceOnUse"
       x2="57.726002"
       gradientTransform="matrix(0,0.71282,-0.67402,0,50.746,15.046)"
       y1="25.410999"
       x1="13.472">
      <stop
         id="stop4224"
         style="stop-color:#fff"
         offset="0" />
      <stop
         id="stop4226"
         style="stop-color:#fff;stop-opacity:0"
         offset="1" />
    </linearGradient>
    <linearGradient
       id="linearGradient2787"
       y2="20.709999"
       gradientUnits="userSpaceOnUse"
       x2="0.81572002"
       gradientTransform="matrix(0,-0.6146,-0.58384,0,46.949,46.633)"
       y1="20.709999"
       x1="28.315001">
      <stop
         id="stop2266"
         style="stop-color:#d7e866"
         offset="0" />
      <stop
         id="stop2268"
         style="stop-color:#8cab2a"
         offset="1" />
    </linearGradient>
    <radialGradient
       r="5"
       gradientTransform="matrix(0.59382,0,0,1.5367,41.141,-103.94)"
       cx="5"
       cy="41.5"
       gradientUnits="userSpaceOnUse"
       xlink:href="#linearGradient3681"
       id="radialGradient2805-9" />
    <radialGradient
       r="5"
       gradientTransform="matrix(0.59382,0,0,1.5367,-6.6595,-103.94)"
       cx="5"
       cy="41.5"
       gradientUnits="userSpaceOnUse"
       xlink:href="#linearGradient3681"
       id="radialGradient2801-3" />
  </defs>
  <rect
     transform="matrix(0,-1,-1,0,0,0)"
     style="fill:#919191;fill-opacity:1;stroke:none"
     id="rect4203"
     width="26"
     height="26"
     x="-29"
     y="-29"
     rx="1.3000001"
     ry="1.3000001" />
  <rect
     style="opacity:1;fill:#646464;fill-opacity:1;fill-rule:nonzero;stroke:none;stroke-width:1;stroke-linecap:round;stroke-linejoin:round;stroke-miterlimit:4;stroke-dasharray:none;stroke-dashoffset:0;stroke-opacity:1"
     id="rect4186"
     width="11"
     height="6"
     x="4"
     y="22"
     rx="1.2222222"
     ry="1.2" />
  <path
     style="fill:#ffffff;fill-opacity:1;stroke:none;opacity:0.1"
     d="M 4.3007812 3 C 3.5805812 3 3 3.5805812 3 4.3007812 L 3 5.3007812 C 3 4.5805812 3.5805812 4 4.3007812 4 L 27.699219 4 C 28.419419 4 29 4.5805812 29 5.3007812 L 29 4.3007812 C 29 3.5805812 28.419419 3 27.699219 3 L 4.3007812 3 z "
     id="rect4235" />
  <rect
     ry="1.2"
     rx="1.2222222"
     y="22"
     x="17"
     height="6"
     width="11"
     id="rect4240"
     style="opacity:1;fill:#646464;fill-opacity:1;fill-rule:nonzero;stroke:none;stroke-width:1;stroke-linecap:round;stroke-linejoin:round;stroke-miterlimit:4;stroke-dasharray:none;stroke-dashoffset:0;stroke-opacity:1" />
  <g
     id="g4246">
    <rect
       y="7"
       x="24"
       height="1"
       width="4"
       id="rect4190"
       style="opacity:0.2;fill:#000000;fill-opacity:1;fill-rule:nonzero;stroke:none;stroke-width:1;stroke-linecap:round;stroke-linejoin:round;stroke-miterlimit:4;stroke-dasharray:none;stroke-dashoffset:0;stroke-opacity:1" />
    <rect
       style="opacity:0.2;fill:#000000;fill-opacity:1;fill-rule:nonzero;stroke:none;stroke-width:1;stroke-linecap:round;stroke-linejoin:round;stroke-miterlimit:4;stroke-dasharray:none;stroke-dashoffset:0;stroke-opacity:1"
       id="rect4242"
       width="4"
       height="1"
       x="24"
       y="8.9999981" />
    <rect
       y="11"
       x="24"
       height="1"
       width="4"
       id="rect4244"
       style="opacity:0.2;fill:#000000;fill-opacity:1;fill-rule:nonzero;stroke:none;stroke-width:1;stroke-linecap:round;stroke-linejoin:round;stroke-miterlimit:4;stroke-dasharray:none;stroke-dashoffset:0;stroke-opacity:1" />
  </g>
  <g
     id="g4251"
     transform="translate(0,6)">
    <rect
       style="opacity:0.2;fill:#000000;fill-opacity:1;fill-rule:nonzero;stroke:none;stroke-width:1;stroke-linecap:round;stroke-linejoin:round;stroke-miterlimit:4;stroke-dasharray:none;stroke-dashoffset:0;stroke-opacity:1"
       id="rect4253"
       width="4"
       height="1"
       x="24"
       y="7" />
    <rect
       y="8.9999981"
       x="24"
       height="1"
       width="4"
       id="rect4255"
       style="opacity:0.2;fill:#000000;fill-opacity:1;fill-rule:nonzero;stroke:none;stroke-width:1;stroke-linecap:round;stroke-linejoin:round;stroke-miterlimit:4;stroke-dasharray:none;stroke-dashoffset:0;stroke-opacity:1" />
    <rect
       style="opacity:0.2;fill:#000000;fill-opacity:1;fill-rule:nonzero;stroke:none;stroke-width:1;stroke-linecap:round;stroke-linejoin:round;stroke-miterlimit:4;stroke-dasharray:none;stroke-dashoffset:0;stroke-opacity:1"
       id="rect4257"
       width="4"
       height="1"
       x="24"
       y="11" />
  </g>
  <path
     style="fill:#000000;fill-opacity:1;stroke:none;opacity:0.3"
     d="M 3 26.699219 L 3 27.699219 C 3 28.419419 3.5805812 29 4.3007812 29 L 27.699219 29 C 28.419419 29 29 28.419419 29 27.699219 L 29 26.699219 C 29 27.419419 28.419419 28 27.699219 28 L 4.3007812 28 C 3.5805812 28 3 27.419419 3 26.699219 z "
     id="rect4184" />
</svg>

<?xml version="1.0" encoding="UTF-8" standalone="no"?>
<!-- Created with Inkscape (http://www.inkscape.org/) -->
<svg id="svg2817" xmlns:rdf="http://www.w3.org/1999/02/22-rdf-syntax-ns#" xmlns="http://www.w3.org/2000/svg" height="32" width="32" version="1.0" xmlns:cc="http://creativecommons.org/ns#" xmlns:xlink="http://www.w3.org/1999/xlink" xmlns:dc="http://purl.org/dc/elements/1.1/">
 <metadata id="metadata57">
  <rdf:RDF>
   <cc:Work rdf:about="">
    <dc:format>image/svg+xml</dc:format>
    <dc:type rdf:resource="http://purl.org/dc/dcmitype/StillImage"/>
    <dc:title/>
   </cc:Work>
  </rdf:RDF>
 </metadata>
 <rect id="rect4203" ry="1.3" rx="1.3" transform="matrix(0,-1,-1,0,0,0)" height="26" width="26" y="-29" x="-29" fill="#919191"/>
 <rect id="rect4186" rx="1.2222" ry="1.2" height="6" width="11" y="22" x="4" fill="#646464"/>
 <path id="rect4235" opacity=".1" d="m4.3008 3c-0.7202 0-1.3008 0.5806-1.3008 1.3008v1c0-0.7202 0.5806-1.3008 1.3008-1.3008h23.398c0.72 0 1.301 0.5806 1.301 1.3008v-1c0-0.7202-0.581-1.3008-1.301-1.3008h-23.398z" fill="#fff"/>
 <rect id="rect4240" rx="1.2222" ry="1.2" height="6" width="11" y="22" x="17" fill="#646464"/>
 <g id="g4246">
  <rect id="rect4190" opacity=".2" height="1" width="4" y="7" x="24"/>
  <rect id="rect4242" opacity=".2" height="1" width="4" y="9" x="24"/>
  <rect id="rect4244" opacity=".2" height="1" width="4" y="11" x="24"/>
 </g>
 <g id="g4251" transform="translate(0,6)">
  <rect id="rect4253" opacity=".2" height="1" width="4" y="7" x="24"/>
  <rect id="rect4255" opacity=".2" height="1" width="4" y="9" x="24"/>
  <rect id="rect4257" opacity=".2" height="1" width="4" y="11" x="24"/>
 </g>
 <path id="rect4184" opacity=".3" d="m3 26.699v1c0 0.72 0.5806 1.301 1.3008 1.301h23.398c0.72 0 1.301-0.581 1.301-1.301v-1c0 0.72-0.581 1.301-1.301 1.301h-23.398c-0.7204 0-1.301-0.581-1.301-1.301z"/>
</svg>
